X: 36844
T: Ships Are Sailing, The
R: reel
M: 4/4
K: Edorian
Bee Bcd|AFD AFD|EDE GFG|Bee gfe|
Bee Bcd|AFD AFD|EDE GFG|1 Be^d e2d:|2 Be^d eef||
gfg bge|fef afd|gfg bge|fed e2f|
gfg bge|fef afd|gbg faf|ede gfe:|

